icons/dropbox-line.svg

<svg xmlns="http://www.w3.org/2000/svg" width="24" height="24" fill="none"><g clip-path="url(#a)"><g><path fill="#121212" d="M8.64597 17.26L12.038 19.422L15.43 17.261L17.29 18.446L12.038 21.792L6.78597 18.446L8.64597 17.261V17.26ZM7.76897 8.97996L10.162 7.42696L7.73697 5.85296L5.27997 7.36996L7.76997 8.97996H7.76897ZM9.60897 10.17L12 11.719L14.39 10.172L12 8.61896L9.60897 10.171V10.17ZM13.84 12.91L16.264 14.478L18.714 12.976L16.229 11.364L13.84 12.909V12.91ZM12 6.23396L16.237 3.48596L22.46 7.32996L18.068 10.173L22.461 13.023L16.235 16.842L12 14.1L7.76497 16.84L1.53497 13.023L5.93097 10.172L1.53897 7.32996L7.76297 3.48696L12 6.23496V6.23396ZM13.837 7.42596L16.23 8.97996L18.719 7.36996L16.263 5.85296L13.837 7.42696V7.42596ZM10.16 12.91L7.76997 11.364L5.28397 12.977L7.73497 14.479L10.16 12.91Z"/></g></g><defs><clipPath id="a"><rect width="24" height="24" fill="white"/></clipPath></defs></svg>

<svg width="24" height="24" fill="none" xmlns="http://www.w3.org/2000/svg"><g clip-path="url(#a)"><path d="m8.646 17.26 3.392 2.162 3.392-2.161 1.86 1.185-5.252 3.346-5.252-3.346 1.86-1.185v-.001Zm-.877-8.28 2.393-1.553-2.425-1.574L5.28 7.37l2.49 1.61h-.001Zm1.84 1.19L12 11.719l2.39-1.547L12 8.619l-2.391 1.552v-.001Zm4.231 2.74 2.424 1.568 2.45-1.502-2.485-1.612-2.389 1.545v.001ZM12 6.234l4.237-2.748L22.46 7.33l-4.392 2.843 4.393 2.85-6.226 3.819L12 14.1l-4.235 2.74-6.23-3.817 4.396-2.851L1.539 7.33l6.224-3.843L12 6.235v-.001Zm1.837 1.192L16.23 8.98l2.489-1.61-2.456-1.517-2.426 1.574v-.001ZM10.16 12.91l-2.39-1.546-2.486 1.613 2.451 1.502 2.425-1.569Z" /></g><defs><clipPath id="a"><path fill="#fff" d="M0 0h24v24H0z"/></clipPath></defs></svg>
